media/icons/icon_regional.svg

<svg id="Capa_1" enable-background="new 0 0 512 512" height="512" viewBox="0 0 512 512" width="512" xmlns="http://www.w3.org/2000/svg"><g><path d="m504.5 78.977c4.143 0 7.5-3.357 7.5-7.5v-43.977c0-15.163-12.337-27.5-27.5-27.5h-249.254c-15.164 0-27.5 12.337-27.5 27.5v169.183h-109.83c-53.991 0-97.916 43.979-97.916 98.038v111.109c0 36.087 29.324 65.446 65.367 65.446h4.066c2.43 6.731 6.025 13.04 10.67 18.597 2.656 3.18 7.386 3.602 10.564.945 3.178-2.656 3.602-7.386.945-10.564-7-8.376-10.855-19.009-10.855-29.939 0-25.742 20.911-46.686 46.613-46.686s46.612 20.943 46.612 46.686-20.91 46.685-46.612 46.685c-4.968 0-9.882-.791-14.607-2.352-3.935-1.304-8.175.835-9.474 4.769s.836 8.175 4.769 9.474c6.246 2.063 12.743 3.109 19.312 3.109 26.625 0 49.355-16.999 57.944-40.724h146.407c8.589 23.725 31.319 40.724 57.944 40.724s49.355-16.999 57.944-40.724h21.761c23.506 0 42.63-19.146 42.63-42.678v-42.957c0-24.943-12.237-49.192-32.316-63.991l-77.079-56.803h81.895c15.163 0 27.5-12.337 27.5-27.5v-134.347c0-4.143-3.357-7.5-7.5-7.5s-7.5 3.357-7.5 7.5v134.348c0 6.893-5.607 12.5-12.5 12.5h-102.25l-12.324-9.082c-39.11-28.84-85.456-44.083-134.027-44.083h-13.152v-169.183c0-6.893 5.607-12.5 12.5-12.5h249.253c6.893 0 12.5 5.607 12.5 12.5v43.977c0 4.142 3.357 7.5 7.5 7.5zm-114.835 418.023c-25.702 0-46.612-20.943-46.612-46.686s20.91-46.686 46.612-46.686 46.612 20.943 46.612 46.686-20.91 46.686-46.612 46.686zm106.892-118.858h-10.249c-21.215 0-38.475-17.26-38.475-38.475 0-1.379 1.121-2.5 2.5-2.5h24.718c11.955 10.51 19.641 25.19 21.506 40.975zm-135.532-125.302 94.074 69.327h-4.766c-9.649 0-17.5 7.851-17.5 17.5 0 29.486 23.988 53.475 53.475 53.475h10.692v35.457c0 15.262-12.395 27.678-27.63 27.678h-18.386c.189-1.963.293-3.95.293-5.962 0-34.014-27.64-61.686-61.612-61.686s-61.612 27.672-61.612 61.686c0 2.012.104 3.999.293 5.962h-139.657c.189-1.963.293-3.95.293-5.962 0-34.014-27.639-61.686-61.612-61.686-33.974 0-61.613 27.672-61.613 61.686 0 1.998.107 3.986.3 5.962h-.69c-27.772-.001-50.367-22.631-50.367-50.447v-111.109c0-45.787 37.196-83.038 82.916-83.038h137.983c45.343 0 88.611 14.231 125.126 41.157z"/><path d="m127.37 482c17.431 0 31.612-14.214 31.612-31.686s-14.181-31.686-31.612-31.686-31.613 14.214-31.613 31.686 14.182 31.686 31.613 31.686zm0-48.371c9.16 0 16.612 7.485 16.612 16.686s-7.452 16.685-16.612 16.685-16.613-7.485-16.613-16.686 7.453-16.685 16.613-16.685z"/><path d="m389.665 418.629c-17.431 0-31.612 14.214-31.612 31.686s14.181 31.685 31.612 31.685 31.612-14.214 31.612-31.686-14.181-31.685-31.612-31.685zm0 48.371c-9.16 0-16.612-7.485-16.612-16.686s7.452-16.686 16.612-16.686 16.612 7.485 16.612 16.686-7.452 16.686-16.612 16.686z"/><path d="m101.721 229.47c-37.66 0-68.299 30.676-68.299 68.381 0 16.234 13.194 29.441 29.412 29.441h313.427c8.113 0 14.995-4.983 17.531-12.696 2.538-7.721-.045-15.823-6.583-20.645l-35.592-26.244c-33.928-25.016-74.13-38.237-116.261-38.237zm-53.299 68.381c0-29.435 23.91-53.381 53.299-53.381h34.01v67.822h-72.897c-7.947 0-14.412-6.479-14.412-14.441zm329.885 8.172c1.761 1.298 1.53 2.992 1.235 3.887-.292.89-1.107 2.382-3.281 2.382h-113.991v-65.833c29.013 4.316 56.432 15.615 80.445 33.32zm-131.037-61.162v67.431h-96.54v-67.822h84.625c3.993 0 7.965.135 11.915.391z"/><path d="m51.39 124.406c27.723-27.722 72.832-27.723 100.554 0 3.535 2.928 7.071 2.928 10.606 0 2.929-2.93 2.929-7.678 0-10.607-33.571-33.569-88.195-33.571-121.767 0-2.929 2.93-2.929 7.678 0 10.607 2.929 2.928 7.678 2.928 10.607 0z"/><path d="m136.251 147.599c1.919 0 3.839-.732 5.303-2.196 2.929-2.93 2.929-7.678 0-10.607-10.662-10.661-24.827-16.533-39.888-16.533-15.06 0-29.226 5.872-39.888 16.533-2.929 2.93-2.929 7.678 0 10.607 2.929 2.928 7.678 2.928 10.606 0 7.829-7.829 18.228-12.141 29.281-12.141 11.054 0 21.453 4.312 29.281 12.141 1.466 1.463 3.386 2.196 5.305 2.196z"/><path d="m82.124 155.14c-2.929 2.929-2.929 7.678 0 10.606 2.93 2.93 7.678 2.929 10.607.001 4.928-4.928 12.945-4.928 17.873 0 3.536 2.929 7.071 2.928 10.606-.001 2.929-2.929 2.929-7.678 0-10.606-10.777-10.776-28.31-10.777-39.086 0z"/><path d="m317.917 154.977c25.089 0 45.5-20.411 45.5-45.5s-20.411-45.5-45.5-45.5-45.5 20.411-45.5 45.5 20.411 45.5 45.5 45.5zm0-76c16.817 0 30.5 13.683 30.5 30.5s-13.683 30.5-30.5 30.5-30.5-13.683-30.5-30.5 13.683-30.5 30.5-30.5z"/><path d="m475.167 45.413c0-4.143-3.357-7.5-7.5-7.5h-56.822c-1.989 0-3.896.79-5.304 2.196l-23.958 23.958c-14.206-19.86-37.441-32.841-63.666-32.841-4.143 0-7.5 3.357-7.5 7.5s3.357 7.5 7.5 7.5c34.876 0 63.25 28.374 63.25 63.25s-28.374 63.25-63.25 63.25-63.25-28.374-63.25-63.25c0-14.74 5.179-29.088 14.583-40.402 2.647-3.186 2.212-7.914-.974-10.562-3.185-2.649-7.914-2.211-10.562.974-11.639 14.002-18.048 31.755-18.048 49.99 0 43.147 35.103 78.25 78.25 78.25 15.024 0 29.066-4.265 40.997-11.634l49.262 49.261c1.407 1.406 3.314 2.196 5.304 2.196h54.188c4.143 0 7.5-3.357 7.5-7.5s-3.357-7.5-7.5-7.5h-51.081l-45.618-45.618c15.482-14.306 25.199-34.763 25.199-57.455 0-11.373-2.459-22.177-6.842-31.937l24.626-24.627h53.716c4.143.001 7.5-3.356 7.5-7.499z"/><path d="m464.397 147.041h-34.73c-4.143 0-7.5 3.357-7.5 7.5s3.357 7.5 7.5 7.5h34.73c4.143 0 7.5-3.357 7.5-7.5s-3.357-7.5-7.5-7.5z"/><path d="m464.397 178.167h-34.73c-4.143 0-7.5 3.357-7.5 7.5s3.357 7.5 7.5 7.5h34.73c4.143 0 7.5-3.357 7.5-7.5s-3.357-7.5-7.5-7.5z"/></g></svg>

<svg width="512" height="512" viewBox="0 0 512 512" fill="none" xmlns="http://www.w3.org/2000/svg">
<g clip-path="url(#clip0_220_698)">
<path d="M504.5 78.977C508.643 78.977 512 75.62 512 71.477V27.5C512 12.337 499.663 0 484.5 0H235.246C220.082 0 207.746 12.337 207.746 27.5V196.683H97.916C43.925 196.683 0 240.662 0 294.721V405.83C0 441.917 29.324 471.276 65.367 471.276H69.433C71.863 478.007 75.458 484.316 80.103 489.873C82.759 493.053 87.489 493.475 90.667 490.818C93.845 488.162 94.269 483.432 91.612 480.254C84.612 471.878 80.757 461.245 80.757 450.315C80.757 424.573 101.668 403.629 127.37 403.629C153.072 403.629 173.982 424.572 173.982 450.315C173.982 476.058 153.072 497 127.37 497C122.402 497 117.488 496.209 112.763 494.648C108.828 493.344 104.588 495.483 103.289 499.417C101.99 503.351 104.125 507.592 108.058 508.891C114.304 510.954 120.801 512 127.37 512C153.995 512 176.725 495.001 185.314 471.276H331.721C340.31 495.001 363.04 512 389.665 512C416.29 512 439.02 495.001 447.609 471.276H469.37C492.876 471.276 512 452.13 512 428.598V385.641C512 360.698 499.763 336.449 479.684 321.65L402.605 264.847H484.5C499.663 264.847 512 252.51 512 237.347V103C512 98.857 508.643 95.5 504.5 95.5C500.357 95.5 497 98.857 497 103V237.348C497 244.241 491.393 249.848 484.5 249.848H382.25L369.926 240.766C330.816 211.926 284.47 196.683 235.899 196.683H222.747V27.5C222.747 20.607 228.354 15 235.247 15H484.5C491.393 15 497 20.607 497 27.5V71.477C497 75.619 500.357 78.977 504.5 78.977ZM389.665 497C363.963 497 343.053 476.057 343.053 450.314C343.053 424.571 363.963 403.628 389.665 403.628C415.367 403.628 436.277 424.571 436.277 450.314C436.277 476.057 415.367 497 389.665 497ZM496.557 378.142H486.308C465.093 378.142 447.833 360.882 447.833 339.667C447.833 338.288 448.954 337.167 450.333 337.167H475.051C487.006 347.677 494.692 362.357 496.557 378.142ZM361.025 252.84L455.099 322.167H450.333C440.684 322.167 432.833 330.018 432.833 339.667C432.833 369.153 456.821 393.142 486.308 393.142H497V428.599C497 443.861 484.605 456.277 469.37 456.277H450.984C451.173 454.314 451.277 452.327 451.277 450.315C451.277 416.301 423.637 388.629 389.665 388.629C355.693 388.629 328.053 416.301 328.053 450.315C328.053 452.327 328.157 454.314 328.346 456.277H188.689C188.878 454.314 188.982 452.327 188.982 450.315C188.982 416.301 161.343 388.629 127.37 388.629C93.396 388.629 65.757 416.301 65.757 450.315C65.757 452.313 65.864 454.301 66.057 456.277H65.367C37.595 456.276 15 433.646 15 405.83V294.721C15 248.934 52.196 211.683 97.916 211.683H235.899C281.242 211.683 324.51 225.914 361.025 252.84Z" fill="#AAAAAA"/>
<path d="M127.371 482C144.802 482 158.983 467.786 158.983 450.314C158.983 432.842 144.802 418.628 127.371 418.628C109.94 418.628 95.7578 432.842 95.7578 450.314C95.7578 467.786 109.94 482 127.371 482ZM127.371 433.629C136.531 433.629 143.983 441.114 143.983 450.315C143.983 459.516 136.531 467 127.371 467C118.211 467 110.758 459.515 110.758 450.314C110.758 441.113 118.211 433.629 127.371 433.629Z" fill="#EA5050"/>
<path d="M389.667 418.629C372.236 418.629 358.055 432.843 358.055 450.315C358.055 467.787 372.236 482 389.667 482C407.098 482 421.279 467.786 421.279 450.314C421.279 432.842 407.098 418.629 389.667 418.629ZM389.667 467C380.507 467 373.055 459.515 373.055 450.314C373.055 441.113 380.507 433.628 389.667 433.628C398.827 433.628 406.279 441.113 406.279 450.314C406.279 459.515 398.827 467 389.667 467Z" fill="#EA5050"/>
<path d="M101.721 229.47C64.0609 229.47 33.4219 260.146 33.4219 297.851C33.4219 314.085 46.6159 327.292 62.8339 327.292H376.261C384.374 327.292 391.256 322.309 393.792 314.596C396.33 306.875 393.747 298.773 387.209 293.951L351.617 267.707C317.689 242.691 277.487 229.47 235.356 229.47H101.721ZM48.4219 297.851C48.4219 268.416 72.3319 244.47 101.721 244.47H135.731V312.292H62.8339C54.8869 312.292 48.4219 305.813 48.4219 297.851ZM378.307 306.023C380.068 307.321 379.837 309.015 379.542 309.91C379.25 310.8 378.435 312.292 376.261 312.292H262.27V246.459C291.283 250.775 318.702 262.074 342.715 279.779L378.307 306.023ZM247.27 244.861V312.292H150.73V244.47H235.355C239.348 244.47 243.32 244.605 247.27 244.861Z" fill="#EA5050"/>
<path d="M51.3897 124.406C79.1127 96.684 124.222 96.683 151.944 124.406C155.479 127.334 159.015 127.334 162.55 124.406C165.479 121.476 165.479 116.728 162.55 113.799C128.979 80.23 74.3547 80.228 40.7827 113.799C37.8537 116.729 37.8537 121.477 40.7827 124.406C43.7117 127.334 48.4607 127.334 51.3897 124.406Z" fill="#EA5050"/>
<path d="M136.252 147.599C138.171 147.599 140.091 146.867 141.555 145.403C144.484 142.473 144.484 137.725 141.555 134.796C130.893 124.135 116.728 118.263 101.667 118.263C86.6068 118.263 72.4408 124.135 61.7788 134.796C58.8498 137.726 58.8498 142.474 61.7788 145.403C64.7078 148.331 69.4568 148.331 72.3848 145.403C80.2138 137.574 90.6128 133.262 101.666 133.262C112.72 133.262 123.119 137.574 130.947 145.403C132.413 146.866 134.333 147.599 136.252 147.599Z" fill="#EA5050"/>
<path d="M82.1225 155.14C79.1935 158.069 79.1935 162.818 82.1225 165.746C85.0525 168.676 89.8005 168.675 92.7295 165.747C97.6575 160.819 105.675 160.819 110.603 165.747C114.139 168.676 117.674 168.675 121.209 165.746C124.138 162.817 124.138 158.068 121.209 155.14C110.432 144.364 92.8985 144.363 82.1225 155.14Z" fill="#EA5050"/>
<path d="M317.918 154.977C343.007 154.977 363.418 134.566 363.418 109.477C363.418 84.388 343.007 63.9771 317.918 63.9771C292.829 63.9771 272.418 84.388 272.418 109.477C272.418 134.566 292.829 154.977 317.918 154.977ZM317.918 78.977C334.735 78.977 348.418 92.66 348.418 109.477C348.418 126.294 334.735 139.977 317.918 139.977C301.101 139.977 287.418 126.294 287.418 109.477C287.418 92.66 301.101 78.977 317.918 78.977Z" fill="#EA5050"/>
<path d="M475.165 45.413C475.165 41.27 471.808 37.913 467.665 37.913H410.843C408.854 37.913 406.947 38.703 405.539 40.109L381.581 64.067C367.375 44.207 344.14 31.226 317.915 31.226C313.772 31.226 310.415 34.583 310.415 38.726C310.415 42.869 313.772 46.226 317.915 46.226C352.791 46.226 381.165 74.6 381.165 109.476C381.165 144.352 352.791 172.726 317.915 172.726C283.039 172.726 254.665 144.352 254.665 109.476C254.665 94.736 259.844 80.388 269.248 69.074C271.895 65.888 271.46 61.16 268.274 58.512C265.089 55.863 260.36 56.301 257.712 59.486C246.073 73.488 239.664 91.241 239.664 109.476C239.664 152.623 274.767 187.726 317.914 187.726C332.938 187.726 346.98 183.461 358.911 176.092L408.173 225.353C409.58 226.759 411.487 227.549 413.477 227.549H467.665C471.808 227.549 475.165 224.192 475.165 220.049C475.165 215.906 471.808 212.549 467.665 212.549H416.584L370.966 166.931C386.448 152.625 396.165 132.168 396.165 109.476C396.165 98.103 393.706 87.299 389.323 77.539L413.949 52.912H467.665C471.808 52.913 475.165 49.556 475.165 45.413Z" fill="#EA5050"/>
<path d="M464.398 147.041H429.668C425.525 147.041 422.168 150.398 422.168 154.541C422.168 158.684 425.525 162.041 429.668 162.041H464.398C468.541 162.041 471.898 158.684 471.898 154.541C471.898 150.398 468.541 147.041 464.398 147.041Z" fill="#EA5050"/>
<path d="M464.398 178.167H429.668C425.525 178.167 422.168 181.524 422.168 185.667C422.168 189.81 425.525 193.167 429.668 193.167H464.398C468.541 193.167 471.898 189.81 471.898 185.667C471.898 181.524 468.541 178.167 464.398 178.167Z" fill="#EA5050"/>
</g>
<defs>
<clipPath id="clip0_220_698">
<rect width="512" height="512" fill="white"/>
</clipPath>
</defs>
</svg>
